app/assets/images/heroicons/micro/archive-box-arrow-down.svg

<svg width="16" height="16" viewBox="0 0 16 16" fill="none" xmlns="http://www.w3.org/2000/svg">
<path d="M2 3C2 2.44772 2.44772 2 3 2H13C13.5523 2 14 2.44772 14 3V4C14 4.55228 13.5523 5 13 5H3C2.44772 5 2 4.55228 2 4V3Z" fill="#0F172A"/>
<path fill-rule="evenodd" clip-rule="evenodd" d="M13 6H3V12C3 13.1046 3.89543 14 5 14H11C12.1046 14 13 13.1046 13 12V6ZM8.75 7.75C8.75 7.33579 8.41421 7 8 7C7.58579 7 7.25 7.33579 7.25 7.75V10.4393L6.03033 9.21967C5.73744 8.92678 5.26256 8.92678 4.96967 9.21967C4.67678 9.51256 4.67678 9.98744 4.96967 10.2803L7.46967 12.7803C7.76256 13.0732 8.23744 13.0732 8.53033 12.7803L11.0303 10.2803C11.3232 9.98744 11.3232 9.51256 11.0303 9.21967C10.7374 8.92678 10.2626 8.92678 9.96967 9.21967L8.75 10.4393V7.75Z" fill="#0F172A"/>
</svg>

<svg xmlns="http://www.w3.org/2000/svg" viewBox="0 0 16 16" fill="currentColor" aria-hidden="true" data-slot="icon">
  <path d="M2 3a1 1 0 0 1 1-1h10a1 1 0 0 1 1 1v1a1 1 0 0 1-1 1H3a1 1 0 0 1-1-1V3Z"/>
  <path fill-rule="evenodd" d="M13 6H3v6a2 2 0 0 0 2 2h6a2 2 0 0 0 2-2V6ZM8.75 7.75a.75.75 0 0 0-1.5 0v2.69L6.03 9.22a.75.75 0 0 0-1.06 1.06l2.5 2.5a.75.75 0 0 0 1.06 0l2.5-2.5a.75.75 0 1 0-1.06-1.06l-1.22 1.22V7.75Z" clip-rule="evenodd"/>
</svg>
